X:1
T:Il Valzer di Mezzanotte
C:W-52
K:Am
M:3/4
R:Waltz
L:1/8
E ABcd|"Am"e6|"Dm"f6|"Am"ed c4-|c2de dc|"E7"B6|d6|"Am"cBA4|
"Am/E"zE ABcd|"Am"e6|"A7"g6|"Dm"fed4-|d2efed|"Am"c2z2e2|"E7"B2z2e2|"Am"A3 A A2
|1A:|2"Am"+fine+Az z4|]:[K:A]"A"e6|f2!breath! g3a|"E7"g6-|"Bm7"g2 b3 a|"E7"g4 g2|f4 =f2|"A"e6-|e2 e2 d2|"F#"c6|
c2 e3 c|"Bm"d6-|"D"d2e2 d2|"A"c2 z2 d2|"E"B2z2e2|"A"A3AA2|1"A"A6:|2"Am"AE AB=cd||
[K:Am]"P lyrical""Am"e4c2|"Dm"d4B2|"Am"c4A2|"E7"B6|"Am"(e2f2)e2|"Dm"(d2e2)d2|"Am"(c2d2)c2|"E7"B|]

% %titlefont  Times-Bold 14.0
